public/cloud-icons/azure/endpoint/intune-device-configuration.svg

<?xml version="1.0" encoding="UTF-8" standalone="no"?>
<!-- Generated by Microsoft Visio, SVG Export Intune Device Configuration.svg Page-1 -->

<svg
   xmlns:dc="http://purl.org/dc/elements/1.1/"
   xmlns:cc="http://creativecommons.org/ns#"
   xmlns:rdf="http://www.w3.org/1999/02/22-rdf-syntax-ns#"
   xmlns:svg="http://www.w3.org/2000/svg"
   xmlns="http://www.w3.org/2000/svg"
   xmlns:sodipodi="http://sodipodi.sourceforge.net/DTD/sodipodi-0.dtd"
   xmlns:inkscape="http://www.inkscape.org/namespaces/inkscape"
   width="0.78734523in"
   height="0.78735924in"
   viewBox="0 0 56.688855 56.690006"
   xml:space="preserve"
   class="st6"
   version="1.1"
   id="svg60"
   sodipodi:docname="Intune Device Configuration.svg"
   style="font-size:12px;overflow:visible;color-interpolation-filters:sRGB;fill:none;fill-rule:evenodd;stroke-linecap:square;stroke-miterlimit:3"
   inkscape:version="0.92.5 (2060ec1f9f, 2020-04-08)"><metadata
   id="metadata64"><rdf:RDF><cc:Work
       rdf:about=""><dc:format>image/svg+xml</dc:format><dc:type
         rdf:resource="http://purl.org/dc/dcmitype/StillImage" /></cc:Work></rdf:RDF></metadata><sodipodi:namedview
   pagecolor="#ffffff"
   bordercolor="#666666"
   borderopacity="1"
   objecttolerance="10"
   gridtolerance="10"
   guidetolerance="10"
   inkscape:pageopacity="0"
   inkscape:pageshadow="2"
   inkscape:window-width="640"
   inkscape:window-height="480"
   id="namedview62"
   showgrid="false"
   inkscape:zoom="1.8365233"
   inkscape:cx="37.795184"
   inkscape:cy="18.900354"
   inkscape:window-x="0"
   inkscape:window-y="0"
   inkscape:window-maximized="0"
   inkscape:current-layer="svg60" />
	<style
   type="text/css"
   id="style2">
	<![CDATA[
		.st1 {fill:url(#grad0-5);stroke:none;stroke-linecap:butt;stroke-width:0.75}
		.st2 {fill:#f2f2f2;stroke:none;stroke-linecap:butt;stroke-width:0.75}
		.st3 {fill:url(#grad0-13);stroke:none;stroke-linecap:butt;stroke-width:0.75}
		.st4 {fill:#949494;stroke:none;stroke-linecap:butt;stroke-width:0.75}
		.st5 {fill:#ffffff;stroke:none;stroke-linecap:butt;stroke-width:0.75}
		.st6 {fill:none;fill-rule:evenodd;font-size:12px;overflow:visible;stroke-linecap:square;stroke-miterlimit:3}
	]]>
	</style>

	<defs
   id="Patterns_And_Gradients">
		<linearGradient
   id="grad0-5"
   x1="0"
   y1="32.159997"
   x2="45.934758"
   y2="32.159997"
   gradientTransform="scale(0.81027966,1.2341418)"
   gradientUnits="userSpaceOnUse">
			<stop
   offset="0"
   stop-color="#0078d4"
   stop-opacity="1"
   id="stop4" />
			<stop
   offset="0.17"
   stop-color="#1c84dc"
   stop-opacity="1"
   id="stop6" />
			<stop
   offset="0.38"
   stop-color="#3990e4"
   stop-opacity="1"
   id="stop8" />
			<stop
   offset="0.59"
   stop-color="#4d99ea"
   stop-opacity="1"
   id="stop10" />
			<stop
   offset="0.8"
   stop-color="#5a9eee"
   stop-opacity="1"
   id="stop12" />
			<stop
   offset="1"
   stop-color="#5ea0ef"
   stop-opacity="1"
   id="stop14" />
		</linearGradient>
		<linearGradient
   id="grad0-13"
   x1="0"
   y1="41.407641"
   x2="37.112574"
   y2="41.407641"
   gradientTransform="scale(0.81469407,1.2274546)"
   gradientUnits="userSpaceOnUse">
			<stop
   offset="0"
   stop-color="#d2ebff"
   stop-opacity="1"
   id="stop17" />
			<stop
   offset="1"
   stop-color="#f0fffd"
   stop-opacity="1"
   id="stop19" />
		</linearGradient>
	</defs>
	<g
   id="g58"
   transform="translate(-5.6693772,-5.6742972)">
		<title
   id="title23">Page-1</title>
		<g
   id="group21268-1"
   transform="translate(5.66929,-34.0157)">
			<title
   id="title25">Intune Device Configuration.21268</title>
			<g
   id="shape21269-2">
				<title
   id="title27">Sheet.21269</title>
				<path
   d="m 0,94.68 a 1.86663,1.70183 -180 0 0 1.87,1.7 h 33.49 a 1.86663,1.70183 -180 0 0 1.86,-1.7 V 41.39 a 1.86663,1.70183 -180 0 0 -1.86,-1.7 H 1.87 A 1.86663,1.70183 -180 0 0 0,41.39 Z"
   class="st1"
   id="path29"
   inkscape:connector-curvature="0"
   style="fill:url(#grad0-5);stroke:none;stroke-width:0.75;stroke-linecap:butt" />
			</g>
			<g
   id="shape21270-6"
   transform="translate(16.5065,-1.20126)">
				<title
   id="title32">Sheet.21270</title>
				<path
   d="m 0,95.48 a 0.988214,0.900968 -180 0 0 0.988192,0.900947 L 3.18,96.38 A 0.988214,0.900968 -180 0 0 4.168192,95.479053 L 4.17,94.04 A 0.988214,0.900968 -180 0 0 3.181808,93.139053 L 0.99,93.14 a 0.988214,0.900968 -180 0 0 -0.988192,0.900947 z"
   class="st2"
   id="path34"
   inkscape:connector-curvature="0"
   style="fill:#f2f2f2;stroke:none;stroke-width:0.75;stroke-linecap:butt" />
			</g>
			<g
   id="shape21271-8"
   transform="translate(14.3105,-53.7565)">
				<title
   id="title37">Sheet.21271</title>
				<path
   d="m 0,95.91 a 0.512407,0.467168 -180 0 0 0.512396,0.467158 L 8.05,96.38 A 0.512407,0.467168 -180 0 0 8.562396,95.912842 L 8.56,95.81 A 0.512407,0.467168 -180 0 0 8.047604,95.342842 L 0.51,95.34 a 0.512407,0.467168 -180 0 0 -0.512396,0.467158 z"
   class="st2"
   id="path39"
   inkscape:connector-curvature="0"
   style="fill:#f2f2f2;stroke:none;stroke-width:0.75;stroke-linecap:butt" />
			</g>
			<g
   id="shape21272-10"
   transform="translate(3.47697,-6.34)">
				<title
   id="title42">Sheet.21272</title>
				<path
   d="m 0,95.74 a 0.69541,0.634014 -180 0 0 0.695394,0.634 L 29.54,96.38 a 0.69541,0.634014 -180 0 0 0.695394,-0.634 L 30.23,51.46 A 0.69541,0.634014 -180 0 0 29.534606,50.826 L 0.7,50.83 a 0.69541,0.634014 -180 0 0 -0.695394,0.634 z"
   class="st3"
   id="path44"
   inkscape:connector-curvature="0"
   style="fill:url(#grad0-13);stroke:none;stroke-width:0.75;stroke-linecap:butt" />
			</g>
			<g
   id="shape21273-14"
   transform="translate(24.229,-0.266947)">
				<title
   id="title47">Sheet.21273</title>
				<path
   d="m 29.32,90.71 -1.8,-3.34 a 0.512396,0.467158 0 0 1 0,-0.367052 L 28.15,85.03 a 0.548995,0.500526 0 0 1 0.329397,-0.333684 L 32.13,83.5 a 0.622195,0.567263 -180 0 0 0.329397,-0.467158 L 32.46,79.93 32.24,79.76 28.58,78.63 A 0.475796,0.433789 0 0 1 28.250603,78.329684 L 27.45,76.39 a 0.622195,0.567263 0 0 1 0,-0.400421 L 28.99,73.12 a 0.512396,0.467158 -180 0 0 0,-0.567263 L 26.57,70.32 a 0.548995,0.500526 -180 0 0 -0.622195,0 L 22.87,71.72 A 0.512396,0.467158 0 0 1 22.321005,71.65326 L 20.24,71.08 A 0.439196,0.400421 0 0 1 19.874003,70.779684 L 18.48,67.45 A 0.548995,0.500526 -180 0 0 17.967604,67.116316 L 14.64,67.11 h -0.18 l -1.25,3.34 a 0.585595,0.533894 0 0 1 -0.329397,0.300316 L 10.72,71.49 a 0.622195,0.567263 0 0 1 -0.439196,0 L 6.62,69.82 a 0.548995,0.500526 -180 0 0 -0.622195,0 L 3.88,71.72 a 0.622195,0.567263 -180 0 0 0,0.567263 L 5.67,75.62 a 0.622195,0.567263 0 0 1 0,0.400421 L 4.65,78.33 A 0.585595,0.533894 0 0 1 4.320603,78.630316 L 0.37,79.73 A 0.548995,0.500526 -180 0 0 0.004003,80.197158 L 0,82.9 a 0.475796,0.433789 -180 0 0 0.365997,0.467158 L 4.03,84.5 a 0.585595,0.533894 0 0 1 0.329397,0.300316 L 5.23,86.73 a 0.475796,0.433789 0 0 1 0,0.400421 L 3.4,90.47 a 0.585595,0.533894 -180 0 0 0,0.533894 L 5.49,92.97 a 0.548995,0.500526 -180 0 0 0.658794,0 L 9.81,91.34 a 0.475796,0.433789 0 0 1 0.439196,0 L 12.37,92.14 a 0.731994,0.667368 0 0 1 0.329397,0.300316 L 14.09,96.04 a 0.548995,0.500526 -180 0 0 0.512396,0.333684 L 17.57,96.38 a 0.548995,0.500526 -180 0 0 0.512396,-0.367052 L 19.32,92.67 a 0.731994,0.667368 0 0 1 0.329397,-0.300316 L 22.33,91.67 a 0.585595,0.533894 0 0 1 0.439196,0 L 26.61,93.31 a 0.512396,0.467158 -180 0 0 0.622195,0 L 29.32,91.41 a 0.512396,0.467158 -180 0 0 0,-0.700736 z M 14.38,86.13 a 5.16056,4.70494 0 1 1 6.74,-2.5 5.16056,4.70494 0 0 1 -6.74,2.5 z"
   class="st4"
   id="path49"
   inkscape:connector-curvature="0"
   style="fill:#949494;stroke:none;stroke-width:0.75;stroke-linecap:butt" />
			</g>
			<g
   id="shape21274-16"
   transform="rotate(-67.17,15.194875,59.906672)">
				<title
   id="title52">Sheet.21274</title>
				<ellipse
   cx="5.12396"
   cy="91.706398"
   rx="5.12396"
   ry="4.6715798"
   class="st5"
   id="ellipse54"
   style="fill:#ffffff;stroke:none;stroke-width:0.75;stroke-linecap:butt" />
			</g>
		</g>
	</g>
</svg>

<svg xmlns="http://www.w3.org/2000/svg" xml:space="preserve" width="75.585" height="75.586" style="font-size:12px;overflow:visible;color-interpolation-filters:sRGB;fill-rule:evenodd;stroke-linecap:square;stroke-miterlimit:3" viewBox="0 0 56.689 56.69"><defs><linearGradient id="a" x1="0" x2="45.935" y1="32.16" y2="32.16" gradientTransform="scale(.81028 1.23414)" gradientUnits="userSpaceOnUse"><stop offset="0" stop-color="#0078d4"/><stop offset=".17" stop-color="#1c84dc"/><stop offset=".38" stop-color="#3990e4"/><stop offset=".59" stop-color="#4d99ea"/><stop offset=".8" stop-color="#5a9eee"/><stop offset="1" stop-color="#5ea0ef"/></linearGradient><linearGradient id="b" x1="0" x2="37.113" y1="41.408" y2="41.408" gradientTransform="scale(.8147 1.22745)" gradientUnits="userSpaceOnUse"><stop offset="0" stop-color="#d2ebff"/><stop offset="1" stop-color="#f0fffd"/></linearGradient></defs><g transform="translate(-5.67 -5.674)"><title>Page-1</title><g transform="translate(5.67 -34.016)"><title>Intune Device Configuration.21268</title><title>Sheet.21269</title><path d="M0 94.68a1.867 1.702-180 0 0 1.87 1.7h33.49a1.867 1.702-180 0 0 1.86-1.7V41.39a1.867 1.702-180 0 0-1.86-1.7H1.87A1.867 1.702-180 0 0 0 41.39Z" style="fill:url(#a);stroke:none;stroke-width:.75;stroke-linecap:butt"/><g transform="translate(16.506 -1.201)"><title>Sheet.21270</title><path d="M0 95.48a.988.901-180 0 0 .988.9H3.18a.988.901-180 0 0 .988-.9l.002-1.44a.988.901-180 0 0-.988-.9H.99a.988.901-180 0 0-.988.9z" style="fill:#f2f2f2;stroke:none;stroke-width:.75;stroke-linecap:butt"/></g><g transform="translate(14.31 -53.757)"><title>Sheet.21271</title><path d="M0 95.91a.512.467-180 0 0 .512.467l7.538.003a.512.467-180 0 0 .512-.467l-.002-.103a.512.467-180 0 0-.512-.467L.51 95.34a.512.467-180 0 0-.512.467z" style="fill:#f2f2f2;stroke:none;stroke-width:.75;stroke-linecap:butt"/></g><g transform="translate(3.477 -6.34)"><title>Sheet.21272</title><path d="M0 95.74a.695.634-180 0 0 .695.634l28.845.006a.695.634-180 0 0 .695-.634L30.23 51.46a.695.634-180 0 0-.695-.634L.7 50.83a.695.634-180 0 0-.695.634z" style="fill:url(#b);stroke:none;stroke-width:.75;stroke-linecap:butt"/></g><g transform="translate(24.229 -.267)"><title>Sheet.21273</title><path d="m29.32 90.71-1.8-3.34a.512.467 0 0 1 0-.367l.63-1.973a.549.5 0 0 1 .33-.334l3.65-1.196a.622.567-180 0 0 .33-.467V79.93l-.22-.17-3.66-1.13a.476.434 0 0 1-.33-.3l-.8-1.94a.622.567 0 0 1 0-.4l1.54-2.87a.512.467-180 0 0 0-.567l-2.42-2.233a.549.5-180 0 0-.622 0l-3.078 1.4a.512.467 0 0 1-.549-.067l-2.081-.573a.44.4 0 0 1-.366-.3l-1.394-3.33a.549.5-180 0 0-.512-.334l-3.328-.006h-.18l-1.25 3.34a.586.534 0 0 1-.33.3l-2.16.74a.622.567 0 0 1-.44 0l-3.66-1.67a.549.5-180 0 0-.622 0l-2.118 1.9a.622.567-180 0 0 0 .567l1.79 3.333a.622.567 0 0 1 0 .4l-1.02 2.31a.586.534 0 0 1-.33.3l-3.95 1.1a.549.5-180 0 0-.366.467L0 82.9a.476.434-180 0 0 .366.467L4.03 84.5a.586.534 0 0 1 .33.3l.87 1.93a.476.434 0 0 1 0 .4L3.4 90.47a.586.534-180 0 0 0 .534l2.09 1.966a.549.5-180 0 0 .659 0l3.661-1.63a.476.434 0 0 1 .44 0l2.12.8a.732.667 0 0 1 .33.3l1.39 3.6a.549.5-180 0 0 .512.334l2.968.006a.549.5-180 0 0 .512-.367l1.238-3.343a.732.667 0 0 1 .33-.3l2.68-.7a.586.534 0 0 1 .44 0l3.84 1.64a.512.467-180 0 0 .622 0l2.088-1.9a.512.467-180 0 0 0-.7m-14.94-4.58a5.16 4.705 0 1 1 6.74-2.5 5.16 4.705 0 0 1-6.74 2.5" style="fill:#949494;stroke:none;stroke-width:.75;stroke-linecap:butt"/></g><g transform="rotate(-67.17 15.195 59.907)"><title>Sheet.21274</title><ellipse cx="5.124" cy="91.706" rx="5.124" ry="4.672" style="fill:#fff;stroke:none;stroke-width:.75;stroke-linecap:butt"/></g></g></g></svg>
